X: 3b
T: Cathal McConnell's
T: The Cock and the Hen
M: 9/8
L: 1/8
R: slip jig
K:Bmin
|:"Bm"B3 BAB f3| B3 BAB "D"dBA|"Bm"B3 BAB f2g|"D"afd "G"edB "D"dBA:|
|:"D"afd def "G"g2b|"D"afd def "G"edB|"D"afd def "e"g2e|"D"fed "G"edB "D"dBA:|


